X: 24
T:All Hands Upon Deck. WCa.24
M:C|
Q:200
S:Wm. Calvert MS, 1812, Leyburn, Yorks.
R:reel
O:England
A:North Yorkshire
Z:vmp.Chris Partington, May 2003
K:A
ceeg (fa)(eg)|(fa)(ec) dBfB|ceeg (fa)(eg)|fbecB2A2::!
(c/d/e) A2cdec|(d/e/f)B2defd|(c/d/e) A2cdec|dfecB2A2:||
